X: 251
T: But and Ben
T: dance: The Latvian Lass [Boston Branch Demo Team]
O: arr. Barbara McOwen
R: strathspey
B: Celebrate Fifty Years of Dancing with the Boston Branch RSCDS (2000) p.25 #1
Z: 2012 John Chambers
M: 4/4
L: 1/8
P: AB
K: D
"A"[| B |\
"D"A>GF>E D2d>e | "D"f2e>d f<aa2 | "D"A>GF>E "Bm"D2d>e | "F#m"f>ed>c "Bm"B3d |
"D"A>GF>E D2d>e | "D"f2e>d "D7"f<aa2 | "G"b>ga>f "Em7"e>de<g | "F#m"f>ed>c "Bm"B3 ||
"B"[| d |\
"D"A>Bd>e "D7"f>ed<A | "G"B2g>B "A7"B<AA>B | "D"A>Bd>e "Bm"f>af<d | "Em"B<Bg>f "A7"e3B |
"D"A>Bd>e "D7"f>ed<A | "G"B2g>B "A7"B<AA>B | "D"A>Bd>e "D7"f>af<d | "G"B<d"A7"c<e "D"d3 |]

%%sep 2 1 500
%%sep 1 1 500

